src/assets/background/wave_line/wave_line_blog.svg

<svg width="525" height="352" viewBox="0 0 525 352" fill="none" xmlns="http://www.w3.org/2000/svg">
<path d="M525 322.336C509.46 333.454 469.325 329.52 445.272 283.853C415.205 226.769 382.097 215.224 325.341 215.224C269.179 215.224 225.343 181.872 208.789 133.768C192.235 85.6637 129.736 107.471 91.5611 89.5119C61.0211 75.1447 41.8998 24.5177 36.1566 1.00013" stroke="#E3E6FF"/>
<path d="M525 345.735C508.342 357.662 465.321 353.441 439.538 304.449C407.308 243.209 371.82 230.823 310.982 230.823C250.78 230.823 203.792 195.043 186.048 143.436C168.303 91.8286 101.31 115.224 60.3891 95.957C27.6527 80.5438 7.15619 26.2303 1.00001 1.00027" stroke="#E3E6FF"/>
<path d="M525 298.938C510.577 309.246 473.329 305.599 451.005 263.257C423.101 210.33 392.374 199.626 339.7 199.626C287.577 199.626 246.893 168.702 231.53 124.1C216.167 79.499 158.163 99.7182 122.733 83.067C94.3894 69.746 76.6432 22.8054 71.3131 1.00026" stroke="#E3E6FF"/>
</svg>

<svg width="525" height="352" fill="none" xmlns="http://www.w3.org/2000/svg">
	<path d="M525 322.336c-15.54 11.118-55.675 7.184-79.728-38.483-30.067-57.084-63.175-68.629-119.931-68.629-56.162 0-99.998-33.352-116.552-81.456-16.554-48.104-79.053-26.297-117.228-44.256C61.021 75.145 41.9 24.518 36.157 1" stroke="#E3E6FF"/>
	<path d="M525 345.735c-16.658 11.927-59.679 7.706-85.462-41.286-32.23-61.24-67.718-73.626-128.556-73.626-60.202 0-107.19-35.78-124.934-87.387-17.745-51.607-84.738-28.212-125.659-47.479C27.653 80.544 7.156 26.23 1 1" stroke="#E3E6FF"/>
	<path d="M525 298.938c-14.423 10.308-51.671 6.661-73.995-35.681-27.904-52.927-58.631-63.631-111.305-63.631-52.123 0-92.807-30.924-108.17-75.526-15.363-44.601-73.367-24.382-108.797-41.033C94.389 69.746 76.643 22.805 71.313 1" stroke="#E3E6FF"/>
</svg>
